X:535
T: Tongqian ge
N: C0124
O: China,Hunan, Yiyang
S: I, 534]
N: Typisch ist: La-Do-Mi-So (6-1-3-5). In tiefer Tonlage werden die
N: Toene bisweilen leicht erhoeht gesungen.
N: Die letzten beiden Takte werden in der 4. Strophe durch folgende er-
N: setzt: +5_+3__+5_  +1__.5_  6___ //
N: Vor- und Zwischenspiele ( 0__) weggelassen. Vereinzelt Verzierungen.
R: Xiaodiao; Tanzform; Hua gu]
M: 2/4
L: 1/16
K: Bb
b4g2b2 | f2d4g2 | d2dfb2bg | g4z4 |
b2g2g2b2 | d2f2d4 | b2gbd2bg | g4z4 |
b2g2g2b2 | d2f2d4 | b2b2g2b2 | d2f2d4 |
b2bgg2b2 | g2gbd4 | b2gbd2bg | g4z4 |
b3bd2b2 | f2d4g2 | d2ggb2bg | g4z4 |
g2b2g2f2 | g2b2g2f2 | g2b2g2f2 |
g3bgbgf | d4f4 | g3bgbgf | d4f4 |
dfb2gbd2 | b4b4 | b2bgb2d2 | g4f4 |
b4g2b2 | f2d4g2 | d2dfb2bg | g4z4 |
b2g2g2b2 | d2f2d4 | b2gbd2bg | g4z4 |
b2g2g2b2 | d2f2d4 | b2b2g2b2 | d2f2d4 |
b2bgg2b2 | g2gbd4 | b2gbd2bg | g4z4 |
b3bd2b2 | f2d4g2 | d2ggb2bg | g4z4 |
g2b2g2f2 | g2b2g2f2 | g2b2g2f2 |
g3bgbgf | d4f4 | g3bgbgf | d4f4 |
dfb2gbd2 | b4b4 |
f2d4f2 | b6f2 | g8

@@@ Tune index: 6536
